assets/flags/PH.svg

<?xml version="1.0" encoding="UTF-8"?>
<svg width="21px" height="15px" viewBox="0 0 21 15" version="1.1" xmlns="http://www.w3.org/2000/svg" xmlns:xlink="http://www.w3.org/1999/xlink">
    <!-- Generator: sketchtool 46 (44423) - http://www.bohemiancoding.com/sketch -->
    <title>PH</title>
    <desc>Created with sketchtool.</desc>
    <defs>
        <linearGradient x1="50%" y1="0%" x2="50%" y2="100%" id="linearGradient-1">
            <stop stop-color="#FFFFFF" offset="0%"></stop>
            <stop stop-color="#F0F0F0" offset="100%"></stop>
        </linearGradient>
        <linearGradient x1="50%" y1="0%" x2="50%" y2="100%" id="linearGradient-2">
            <stop stop-color="#DD1C34" offset="0%"></stop>
            <stop stop-color="#CC162C" offset="100%"></stop>
        </linearGradient>
        <linearGradient x1="50%" y1="0%" x2="50%" y2="100%" id="linearGradient-3">
            <stop stop-color="#0D4BC3" offset="0%"></stop>
            <stop stop-color="#073DA6" offset="100%"></stop>
        </linearGradient>
        <linearGradient x1="50%" y1="0%" x2="50%" y2="100%" id="linearGradient-4">
            <stop stop-color="#FDD64D" offset="0%"></stop>
            <stop stop-color="#FCD036" offset="100%"></stop>
        </linearGradient>
    </defs>
    <g id="Symbols" stroke="none" stroke-width="1" fill="none" fill-rule="evenodd">
        <g id="PH">
            <rect id="FlagBackground" fill="url(#linearGradient-1)" x="0" y="0" width="21" height="15"></rect>
            <rect id="Rectangle-2" fill="url(#linearGradient-2)" x="0" y="7" width="21" height="8"></rect>
            <rect id="Rectangle-2" fill="url(#linearGradient-3)" x="0" y="0" width="21" height="7"></rect>
            <polygon id="Rectangle-83" fill="url(#linearGradient-1)" points="0 0 10 7.5 0 15"></polygon>
            <path d="M3.39905647,8.49496835 L2.54329142,9.80969883 L2.86783947,8.27487717 C2.81561375,8.23221927 2.76778073,8.18438625 2.72512283,8.13216053 L1.19030117,8.45670858 L2.50503165,7.60094353 C2.50170408,7.56774742 2.5,7.53407271 2.5,7.5 C2.5,7.46592729 2.50170408,7.43225258 2.50503165,7.39905647 L1.19030117,6.54329142 L2.72512283,6.86783947 C2.76778073,6.81561375 2.81561375,6.76778073 2.86783947,6.72512283 L2.54329142,5.19030117 L3.39905647,6.50503165 C3.43225258,6.50170408 3.46592729,6.5 3.5,6.5 C3.53407271,6.5 3.56774742,6.50170408 3.60094353,6.50503165 L4.45670858,5.19030117 L4.13216053,6.72512283 C4.18438625,6.76778073 4.23221927,6.81561375 4.27487717,6.86783947 L5.80969883,6.54329142 L4.49496835,7.39905647 C4.49829592,7.43225258 4.5,7.46592729 4.5,7.5 C4.5,7.53407271 4.49829592,7.56774742 4.49496835,7.60094353 L5.80969883,8.45670858 L4.27487717,8.13216053 C4.23221927,8.18438625 4.18438625,8.23221927 4.13216053,8.27487717 L4.45670858,9.80969883 L3.60094353,8.49496835 C3.56774742,8.49829592 3.53407271,8.5 3.5,8.5 C3.46592729,8.5 3.43225258,8.49829592 3.39905647,8.49496835 L3.39905647,8.49496835 Z M7.5,8 C7.22385763,8 7,7.77614237 7,7.5 C7,7.22385763 7.22385763,7 7.5,7 C7.77614237,7 8,7.22385763 8,7.5 C8,7.77614237 7.77614237,8 7.5,8 Z M1.5,3 C1.22385763,3 1,2.77614237 1,2.5 C1,2.22385763 1.22385763,2 1.5,2 C1.77614237,2 2,2.22385763 2,2.5 C2,2.77614237 1.77614237,3 1.5,3 Z M1.5,13 C1.22385763,13 1,12.7761424 1,12.5 C1,12.2238576 1.22385763,12 1.5,12 C1.77614237,12 2,12.2238576 2,12.5 C2,12.7761424 1.77614237,13 1.5,13 Z" id="Oval-206" fill="url(#linearGradient-4)"></path>
        </g>
    </g>
</svg>

<svg width="21" height="15" xmlns="http://www.w3.org/2000/svg"><defs><linearGradient x1="50%" y1="0%" x2="50%" y2="100%" id="a"><stop stop-color="#FFF" offset="0%"/><stop stop-color="#F0F0F0" offset="100%"/></linearGradient><linearGradient x1="50%" y1="0%" x2="50%" y2="100%" id="b"><stop stop-color="#DD1C34" offset="0%"/><stop stop-color="#CC162C" offset="100%"/></linearGradient><linearGradient x1="50%" y1="0%" x2="50%" y2="100%" id="c"><stop stop-color="#0D4BC3" offset="0%"/><stop stop-color="#073DA6" offset="100%"/></linearGradient><linearGradient x1="50%" y1="0%" x2="50%" y2="100%" id="d"><stop stop-color="#FDD64D" offset="0%"/><stop stop-color="#FCD036" offset="100%"/></linearGradient></defs><g fill="none" fill-rule="evenodd"><path fill="url(#a)" d="M0 0h21v15H0z"/><path fill="url(#b)" d="M0 7h21v8H0z"/><path fill="url(#c)" d="M0 0h21v7H0z"/><path fill="url(#a)" d="m0 0 10 7.5L0 15z"/><path d="M3.4 8.495 2.542 9.81l.325-1.535c-.052-.043-.1-.09-.143-.143l-1.535.325L2.505 7.6a1.012 1.012 0 0 1 0-.202L1.19 6.543l1.535.325c.043-.052.09-.1.143-.143L2.543 5.19 3.4 6.505a1.012 1.012 0 0 1 .202 0l.856-1.315-.325 1.535c.052.043.1.09.143.143l1.535-.325-1.315.856a1.012 1.012 0 0 1 0 .202l1.315.856-1.535-.325c-.043.052-.09.1-.143.143l.325 1.535L3.6 8.495a1.012 1.012 0 0 1-.202 0zM7.5 8a.5.5 0 1 1 0-1 .5.5 0 0 1 0 1zm-6-5a.5.5 0 1 1 0-1 .5.5 0 0 1 0 1zm0 10a.5.5 0 1 1 0-1 .5.5 0 0 1 0 1z" fill="url(#d)"/></g></svg>
